packages/core/src/svgs/agix.svg

<svg width="24" height="24" viewBox="0 0 24 24" fill="none" xmlns="http://www.w3.org/2000/svg">
<g clip-path="url(#clip0_31_5735)">
<path d="M0 0H24V24H0V0Z" fill="#311879"/>
<path d="M11.1943 4.77431C10.5471 5.31431 9.42854 6.53574 9.42854 7.91146C9.42854 9.62146 11.4771 10.7829 12.5443 11.4043L12.8871 11.61C13.7785 12.1586 15.8571 13.53 15.8571 15.7243C15.8571 17.8072 14.0571 19.1829 13.1057 19.6886C13.02 19.7315 12.9128 19.7186 12.84 19.65C12.8184 19.6294 12.8014 19.6044 12.79 19.5768C12.7787 19.5491 12.7733 19.5194 12.7741 19.4896C12.7749 19.4597 12.7819 19.4303 12.7947 19.4033C12.8076 19.3764 12.8259 19.3524 12.8485 19.3329C13.5343 18.7329 14.5714 17.4386 14.5714 16.14C14.5714 14.3529 13.0371 13.3972 11.85 12.7115L11.7085 12.6257C10.23 11.7729 8.14282 10.5686 8.14282 8.18146C8.14282 6.35146 9.88282 4.89003 10.8857 4.32431C11.0143 4.25146 11.1728 4.29003 11.2543 4.40146C11.34 4.52146 11.31 4.68003 11.1943 4.77431Z" fill="white"/>
<path d="M14.5714 7.84272C14.5714 6.44558 13.4657 5.24987 12.8314 4.73129C12.7372 4.65415 12.7114 4.51701 12.7886 4.42272C12.8232 4.37867 12.8722 4.34812 12.927 4.33638C12.9818 4.32464 13.0389 4.33244 13.0886 4.35844C14.0743 4.89844 15.7586 6.27844 15.7586 8.13415C15.7586 9.22701 15.2872 10.1142 14.6529 10.8213C14.4472 10.9413 14.2114 10.9799 13.9672 10.8427C13.5 10.5813 13.7272 10.0456 13.9543 9.62987C14.3481 9.11507 14.5647 8.48657 14.5714 7.83844V7.84272ZM10.0286 14.417H10.0543C9.67376 14.9052 9.45503 15.5 9.42858 16.1184C9.42858 17.4213 10.5129 18.7413 11.1729 19.3413C11.2629 19.427 11.2714 19.5642 11.1814 19.6456C11.1433 19.6795 11.0956 19.7006 11.0448 19.706C10.9941 19.7114 10.943 19.7007 10.8986 19.6756L10.8857 19.6713C10.2 19.2856 8.24573 18.1927 8.24573 15.8442C8.24573 14.8799 8.65716 14.0699 9.19716 13.4142C9.4543 13.1913 9.7543 13.0456 10.0286 13.1999C10.5429 13.4956 10.2386 14.117 10.0286 14.4127V14.417Z" fill="white"/>
</g>
<defs>
<clipPath id="clip0_31_5735">
<rect width="24" height="24" fill="white"/>
</clipPath>
</defs>
</svg>

<svg xmlns="http://www.w3.org/2000/svg" width="24" height="24" fill="none" viewBox="0 0 24 24"><g clip-path="url(#a)"><path fill="#311879" d="M0 0h24v24H0z"/><path fill="#fff" d="M11.194 4.774c-.647.54-1.765 1.762-1.765 3.137 0 1.71 2.048 2.872 3.115 3.493l.343.206c.891.549 2.97 1.92 2.97 4.114 0 2.083-1.8 3.459-2.751 3.965a.235.235 0 0 1-.266-.039.214.214 0 0 1 .008-.317c.686-.6 1.723-1.894 1.723-3.193 0-1.787-1.534-2.743-2.721-3.429l-.141-.085c-1.479-.853-3.566-2.057-3.566-4.445 0-1.83 1.74-3.291 2.743-3.857a.284.284 0 0 1 .368.077c.086.12.056.279-.06.373"/><path fill="#fff" d="M14.571 7.843c0-1.397-1.105-2.593-1.74-3.112-.094-.077-.12-.214-.042-.308a.24.24 0 0 1 .3-.065c.985.54 2.67 1.92 2.67 3.776 0 1.093-.472 1.98-1.106 2.687-.206.12-.442.159-.686.022-.467-.262-.24-.797-.013-1.213a3 3 0 0 0 .617-1.792zm-4.542 6.574h.025c-.38.488-.599 1.083-.625 1.701 0 1.303 1.084 2.623 1.744 3.223.09.086.098.223.008.305a.24.24 0 0 1-.282.03l-.013-.005c-.686-.385-2.64-1.478-2.64-3.827 0-.964.411-1.774.951-2.43.257-.223.557-.368.832-.214.514.296.21.917 0 1.213z"/></g><defs><clipPath id="a"><path fill="#fff" d="M0 0h24v24H0z"/></clipPath></defs></svg>
